X:1
T:Title
%%score { ( 1 2 ) | ( 3 4 ) }
L:1/8
Q:1/4=100
M:4/4
K:Ab
V:1 treble nm="Grand Piano"
V:2 treble 
V:3 bass 
V:4 bass 
V:1
 z4 [Ec]2 z2 | [A,CA]4 [B,=EG]4 | [A,F]2 [A,FA]2 [A,EG]2 [A,DF]2 | E8 | E4 d2 c2 | c4 A4 | %6
 B2 F2 G2 A2 | B8[K:bass] | [Ee]4 [EA]2 [EA]2 | [Fd]4 [DF]4 | A2 G2 A2 [FB]2 | [=Ec]8 | %12
 [FB]4 [FA]2 F2 | E4 d4 | c2 A2 [FA]2 [GB]2 |[M:8/4] [EA]8 z8 |[M:4/4] [FA]4 [EA]4 |] %17
V:2
 [CE]4 z E, [DB]2 | x8 | x8 | x8 | x8 | x8 | x8 | z4[K:bass] D,4 | x8 | x8 | x8 | x8 | x8 | x8 | %14
 x8 |[M:8/4] x16 |[M:4/4] x8 |] %17
V:3
 [A,,A,]4 .[A,,A,]2 F,G, | A,,4 C,4 | D,2 D,2 D,2 D,F, | [A,C]8 | [E,G,]4 [B,E]2 [E,A,E]2 | %5
 [F,A,F]4 [F,CF]4 | [B,=D]2 [A,B,C]2 [G,B,D]2 [F,B,D]2 | [G,E]8 | [C,A,]4 [C,A,]2 [C,A,]2 | %9
 [D,A,]4 [B,,B,]4 | [E,B,D]2 [E,B,D]2 [F,A,C]2 [D,F,]2 | [C,G,]8 | [D,F,]4 [D,F,]2 [D,A,D]2 | %13
 [C,A,]4 [F,A,D]4 | [E,A,E]2 [E,CE]2 [E,D]2 [E,D]2 |[M:8/4] [A,C]8 z8 |[M:4/4] [D,D]4 [A,C]4 |] %17
V:4
 z4 z2 A,,2 | x8 | x8 | x8 | x8 | x8 | x8 | E,4 z4 | x8 | x8 | x8 | x8 | x8 | x8 | x8 | %15
[M:8/4] x16 |[M:4/4] x8 |] %17

